X:1
T:Hjemmet er bedst
T:Hjemmet er bedst
T:F. A. Reissiger
T:Henrik Wergeland
C:F. A. Reissiger
Z:Henrik Wergeland
%%score [ 1 2 3 4 ]
L:1/8
Q:1/4=118
M:4/4
K:D
V:1 treble-8 nm="Tenor 1"
V:2 treble-8 nm="Tenor 2"
V:3 bass nm="Baryton"
V:4 bass nm="Bass"
V:1
!f!"^Allegro moderato" d | !>!A3 G F D F A | .d2 .f2 .e2 z e | !>!g3 c (c3/2d/4c/4) B c | %4
w: 1.Saa-|man- gen Daa- re o- ver|Ha- vet hen drog|ud til Nord- * * a- me-|
w: 2.Og|Gud vel- sig- * ne mit|Nor- ges Land med|Fjel- dets sne- * * tek- te|
 .e2 .d2 z2 z d | A3 G (FD) F A | d2 .f2 .e2 z d |!<(! c3 c!<)! (ed)!>(! B c!>)! | .B2 .=A2 z2 z2 | %9
w: ri- ka, men|kom og snart * som en|Fant i- gjen med|ej en Skil- * ling i|Fik- ka.|
w: Ryg- ge. Der|var jeg alt * fra min|Barn- dom van' at|fin- de hjer- * te- lig|Hyg- ge.|
 z!mf! e B c d2 z2 | z e!<(! B c!<)! d2!f! f2 | !>!f3 e d2 d"^rit." d | !>!c3 c !fermata!F4 | %13
w: man rej- se øst,|man rej- se vest, det|nor- ske Hjem er dog|al- ler- bedst.|
w: Rejs du i Øst,|rejs du i Vest, her|hjem- me er det dog|al- ler- bedst.|
"^a tempo"!f! !>!c2 B A !>!d4 | e2 c A f3 d | B3!<(! c (d!<)! d)!>(! f e!>)! | (d2 c2) d2 z |] %17
w: Der med min Gud,|der med min Brud vil|jeg til Dø- * de- gen|le- * ve.|
w: Hvor jeg er fød,|der til min Død, der|vil jeg sta- dig bo og|byg- * ge!|
V:2
!f! d | !>!A3 G F D F A | .d2 .d2 .c2 z c | !>!c3 A A2 A A | .A2 .A2 z2 z d | A3 G (FD) F A | %6
w: 1.Saa-|man- gen Daa- re o- ver|Ha- vet hen drog|ud til Nord- a- me-|ri- ka, men|kom og snart * som en|
w: 2.Og|Gud vel- sig- * ne mit|Nor- ges Land med|Fjel- dets sne- tek- te|Ryg- ge. Der|var jeg alt * fra min|
 d3 .c .B2 z B |!<(! A3 ^A!<)! B2!>(! ^G G!>)! | .^G2 .=A2 z2 z2 | z!mf! A =G E F2 z2 | %10
w: Fant i- gjen med|ej en Skil- ling i|Fik- ka.|man rej- se øst,|
w: Barn- dom van' at|fin- de hjer- te- lig|Hyg- ge.|Rejs du i Øst,|
 z G!<(! G G!<)! F2!f! A2 | !>!^A3 c B2 B"^rit." =A | !>!^G3 =G !fermata!F4 |!f! !>!=G2 G G !>!F4 | %14
w: man rej- se vest, det|nor- ske Hjem er dog|al- ler- bedst.|Der med min Gud,|
w: rejs du i Vest, her|hjem- me er det dog|al- ler- bedst.|Hvor jeg er fød,|
 G2 G G F3 A | B A (!>!G!<(! G)!<)! !>!F2!>(! !>!B2!>)! | A4 A2 z |] %17
w: der med min Brud vil|jeg til Død- * da- gen|le- ve.|
w: der til min Død, der|vil jeg sta- dig bo og|byg- ge!|
V:3
!f! D | !>!A,3 G, F, D, F, A, | .A,2 .A,2 .A,2 z A, | !>!E,3 E, G,2 G, G, | .G,2 .F,2 z2 z D | %5
w: 1.Saa-|man- gen Daa- re o- ver|Ha- vet hen drog|ud til Nord- a- me-|ri- ka, men|
w: 2.Og|Gud vel- sig- * ne mit|Nor- ges Land med|Fjel- dets sne- tek- te|Ryg- ge. Der|
 A,3 G, (F,D,) F, A, | A,2 A,2 .^G,2 z G, |!<(! A,3 G,!<)! F,2!>(! E, D,!>)! | %8
w: kom og snart * som en|Fant i- gjen med|ej en Skil- ling i|
w: var jeg alt * fra min|Barn- dom van' at|fin- de hjer- te- lig|
 .D,2 .C,2 z A, E, F, | (G,4 F,3/2) D,/ F, B, | A,6!f! D2 | !>!C3 F, F,2 ^G,"^rit." F, | %12
w: Fik- ka. Man rej- se|øst, * man rej- se|vest, det|nor- ske Hjem er dog|
w: Hyg- ge. Rejs du i|Øst, * rejs du i|Vest, her|hjem- me er det dog|
 !>!^E,3 E, !fermata!F,4 |!f! !>!=E,2 D, C, !>!D,4 | C,2 E, C, D,3 F, | %15
w: al- ler- bedst.|Der med min Gud,|der med min Brud vil|
w: al- ler- bedst.|Hvor jeg er fød,|der til min Død, der|
 G, F, (!>!E,!<(! E,)!<)! !>!=D,2!>(! !>!G,2!>)! | (F,2 E,2) F,2 z |] %17
w: jeg til Død- * da- gen|le- * ve.|
w: vil jeg sta- dig bo og|byg- * ge!|
V:4
!f! D | !>!A,3 G, F, D, F, A, | .F,2 .D,2 .A,2 z A, | !>!A,,3 A,, E,2 A,, A,, | .D,2 .D,2 z2 z D | %5
w: 1.Saa-|man- gen Daa- re o- ver|Ha- vet hen drog|ud til Nord- a- me-|ri- ka, men|
w: 2.Og|Gud vel- sig- * ne mit|Nor- ges Land med|Fjel- dets sne- tek- te|Ryg- ge. Der|
 A,3 G, (F,D,) F, A, | F,3 .D, .E,2 z ^E, |!<(! F,3 =E,!<)! D,2!>(! E, E,,!>)! | %8
w: kom og snart * som en|Fant i- gjen med|ej en Skil- ling i|
w: var jeg alt * fra min|Barn- dom van' at|fin- de hjer- te- lig|
 .A,,2 .A,,2 z2 z2 | z!mf! C, E, A,, D,2 z2 | z C,!<(! E, A,,!<)! D,2!f! D,2 | %11
w: Fik- ka.|man rej- se øst,|man rej- se vest, det|
w: Hyg- ge.|Rejs du i Øst,|rejs du i Vest, her|
 !>!F,3 ^A,, B,,2 B,,"^rit." B,, | !>!C,3 C, !fermata!F,4 |!f! !>!A,,4 !>!A,2 F, D, | %14
w: nor- ske Hjem er dog|al- ler- bedst.|Der, der med min|
w: hjem- me er det dog|al- ler- bedst.|Hvor, hvor jeg er|
 A,,2 z2 D2 A, F, | G, ^D, (!>!E,!<(! ^A,,)!<)! (!>!B,, B,,)!>(! !>!G,, G,,!>)! | =A,,4 =D,2 z |] %17
w: Gud, der med min|Brud vil jeg til Dø- * da- gen|le- ve.|
w: fød, der til min|Død, der vil jeg sta- dig bo og|byg- ge!|

